src/images/svg/markets/crypto-pairs-new.svg

<svg width="49" height="48" viewBox="0 0 49 48" fill="none" xmlns="http://www.w3.org/2000/svg">
<path fill-rule="evenodd" clip-rule="evenodd" d="M20.2303 40.3018V42.7178H17.2153V40.3108C14.9943 39.8978 13.5973 38.5268 13.4993 36.5348H16.1133C16.2413 37.5798 17.2933 38.2528 18.8183 38.2528C20.2223 38.2528 21.2173 37.5728 21.2173 36.6018C21.2173 35.7758 20.5733 35.3048 18.9873 34.9488L17.3063 34.5898C14.9523 34.0988 13.7953 32.8718 13.7953 30.9028C13.7953 28.9318 15.1093 27.5118 17.1993 27.0448V24.6128H20.2133V27.0488C22.2533 27.5028 23.6133 28.8948 23.6783 30.7658H21.1553C21.0273 29.7458 20.0773 29.0648 18.7723 29.0648C17.4673 29.0648 16.5253 29.6928 16.5253 30.6748C16.5253 31.4718 17.1413 31.9138 18.6573 32.2528L20.2133 32.5828C22.8113 33.1278 23.9303 34.2358 23.9303 36.2548C23.9303 38.4138 22.5433 39.8608 20.2303 40.3018ZM35.0843 31.2068C32.0843 24.3178 26.2683 19.3298 26.2683 19.3298H11.1773C11.1773 19.3298 0.613281 28.3828 0.613281 38.9478C0.613281 44.9818 5.15628 47.9998 8.15828 47.9998H29.2873C30.3593 47.9998 31.6223 47.6108 32.8053 46.8478C31.1973 45.0158 30.2123 42.6228 30.2123 39.9998C30.2123 36.2978 32.1643 33.0508 35.0843 31.2068Z" fill="#85ACAF"/>
<path fill-rule="evenodd" clip-rule="evenodd" d="M41.4503 43.666V45H39.7853V43.67C38.5583 43.442 37.7873 42.685 37.7323 41.585H39.1763C39.2473 42.162 39.8293 42.534 40.6703 42.534C41.4463 42.534 41.9963 42.158 41.9963 41.622C41.9963 41.166 41.6393 40.905 40.7633 40.709L39.8363 40.511C38.5353 40.239 37.8963 39.562 37.8963 38.474C37.8963 37.386 38.6223 36.602 39.7763 36.344V35H41.4413V36.346C42.5683 36.597 43.3183 37.365 43.3553 38.398H41.9613C41.8903 37.835 41.3663 37.459 40.6453 37.459C39.9253 37.459 39.4043 37.806 39.4043 38.349C39.4043 38.789 39.7443 39.033 40.5813 39.22L41.4413 39.402C42.8763 39.703 43.4943 40.314 43.4943 41.43C43.4943 42.623 42.7273 43.422 41.4503 43.666ZM40.6133 32C38.8703 32 37.2633 32.563 35.9483 33.51C33.9313 34.962 32.6133 37.324 32.6133 40C32.6133 42.023 33.3713 43.866 34.6093 45.275C36.0763 46.942 38.2193 48 40.6133 48C45.0313 48 48.6133 44.418 48.6133 40C48.6133 35.582 45.0313 32 40.6133 32Z" fill="#85ACAF"/>
<path fill-rule="evenodd" clip-rule="evenodd" d="M11.1769 16.3066H26.2679L27.6669 12.3376C27.9729 11.5616 27.5909 10.6836 26.8149 10.3776C26.6399 10.3096 26.4539 10.2746 26.2679 10.2736H22.0959C20.4159 8.4106 17.5439 8.2606 15.6799 9.9416C15.5639 10.0456 15.4529 10.1566 15.3479 10.2736H11.1769C10.3419 10.2766 9.66789 10.9556 9.67189 11.7906C9.67289 11.9786 9.70789 12.1636 9.77689 12.3376L11.1769 16.3066Z" fill="#85ACAF"/>
<g style="mix-blend-mode:multiply">
<path fill-rule="evenodd" clip-rule="evenodd" d="M24.6133 12C24.6133 16.287 26.9003 20.249 30.6133 22.393C34.3263 24.536 38.9003 24.536 42.6133 22.393C46.3263 20.249 48.6133 16.287 48.6133 12C48.6133 7.71301 46.3263 3.75101 42.6133 1.60701C38.9003 -0.535994 34.3263 -0.535994 30.6133 1.60701C26.9003 3.75101 24.6133 7.71301 24.6133 12Z" fill="#FF444F"/>
</g>
<path fill-rule="evenodd" clip-rule="evenodd" d="M34.9143 16.751L30.6133 12.45L32.4153 10.648L34.9143 13.147L40.8103 7.24896L42.6133 9.05096L34.9143 16.751Z" fill="white"/>
</svg>

<svg width="49" height="48" fill="none" xmlns="http://www.w3.org/2000/svg"><path fill-rule="evenodd" clip-rule="evenodd" d="M20.23 40.302v2.416h-3.015V40.31c-2.22-.413-3.618-1.784-3.716-3.776h2.614c.128 1.045 1.18 1.718 2.705 1.718 1.404 0 2.4-.68 2.4-1.651 0-.826-.645-1.297-2.23-1.653l-1.682-.36c-2.354-.49-3.51-1.717-3.51-3.686 0-1.971 1.313-3.391 3.403-3.858v-2.432h3.014v2.436c2.04.454 3.4 1.846 3.465 3.717h-2.523c-.128-1.02-1.078-1.701-2.383-1.701s-2.247.628-2.247 1.61c0 .797.616 1.239 2.132 1.578l1.556.33c2.598.545 3.717 1.653 3.717 3.672 0 2.159-1.387 3.606-3.7 4.047Zm14.854-9.095c-3-6.89-8.816-11.877-8.816-11.877h-15.09S.612 28.383.612 38.948C.613 44.982 5.156 48 8.158 48h21.13c1.071 0 2.334-.39 3.517-1.152A10.35 10.35 0 0 1 30.212 40c0-3.702 1.952-6.95 4.872-8.793Z" fill="#85ACAF"/><path fill-rule="evenodd" clip-rule="evenodd" d="M41.45 43.666V45h-1.665v-1.33c-1.227-.228-1.998-.985-2.053-2.085h1.444c.071.577.653.949 1.494.949.776 0 1.326-.376 1.326-.912 0-.456-.357-.717-1.233-.913l-.927-.198c-1.3-.272-1.94-.949-1.94-2.037s.726-1.872 1.88-2.13V35h1.665v1.346c1.127.251 1.877 1.019 1.914 2.052h-1.394c-.07-.563-.595-.939-1.316-.939-.72 0-1.24.347-1.24.89 0 .44.34.684 1.176.871l.86.182c1.435.301 2.053.912 2.053 2.028 0 1.193-.767 1.992-2.044 2.236ZM40.613 32c-1.743 0-3.35.563-4.665 1.51a7.98 7.98 0 0 0-1.339 11.765A7.977 7.977 0 0 0 40.613 48a8 8 0 0 0 0-16ZM11.177 16.307h15.09l1.4-3.97a1.512 1.512 0 0 0-1.4-2.063h-4.171a4.542 4.542 0 0 0-6.748 0h-4.171a1.51 1.51 0 0 0-1.4 2.064l1.4 3.969Z" fill="#85ACAF"/><path fill-rule="evenodd" clip-rule="evenodd" d="M24.613 12a12.001 12.001 0 0 0 18 10.393 12.001 12.001 0 0 0-12-20.786 12.001 12.001 0 0 0-6 10.393Z" fill="#FF444F" style="mix-blend-mode:multiply"/><path fill-rule="evenodd" clip-rule="evenodd" d="m34.914 16.751-4.3-4.301 1.801-1.802 2.5 2.499 5.895-5.898 1.803 1.802-7.699 7.7Z" fill="#fff"/></svg>
